src/assets/duotone/Bluetooth2.svg

<svg width="24" height="24" viewBox="0 0 24 24"  xmlns="http://www.w3.org/2000/svg">
<path opacity="0.4" d="M16.1898 2H7.81976C4.17976 2 2.00977 4.17 2.00977 7.81V16.18C2.00977 19.82 4.17976 21.99 7.81976 21.99H16.1898C19.8298 21.99 21.9998 19.82 21.9998 16.18V7.81C21.9998 4.17 19.8298 2 16.1898 2Z" />
<path d="M12.0801 18.9999C11.8501 18.9999 11.6701 18.9399 11.5701 18.8899C11.3401 18.7799 10.8001 18.4299 10.8001 17.4499V14.0599L7.90008 16.7099C7.60008 16.9899 7.12009 16.9699 6.84009 16.6599C6.56009 16.3499 6.5801 15.8799 6.8901 15.5999L10.8001 12.0199V11.9399L6.8901 8.39992C6.5801 8.11992 6.56009 7.64992 6.84009 7.33992C7.12009 7.02992 7.59008 7.00992 7.90008 7.28992L10.8001 9.93992V6.54993C10.8001 5.56993 11.3401 5.20992 11.5701 5.10992C11.8001 4.99992 12.4201 4.81992 13.1701 5.44992L15.5801 7.45993C15.9101 7.72993 16.1001 8.11992 16.1101 8.52992C16.1201 8.93992 15.9501 9.33993 15.6401 9.62993L13.0501 11.9999L15.6401 14.3699C15.9501 14.6599 16.1301 15.0599 16.1201 15.4699C16.1101 15.8799 15.9201 16.2699 15.5901 16.5399L13.1801 18.5499C12.7501 18.8999 12.3701 18.9999 12.0801 18.9999ZM12.3001 13.2999V17.3199L14.6101 15.3899L12.3001 13.2999ZM12.3001 6.67991V10.6399L14.6101 8.51993L12.3001 6.67991Z" />
<path d="M6.62024 13.3801C5.86024 13.3801 5.24023 12.7601 5.24023 12.0001C5.24023 11.2401 5.86024 10.6201 6.62024 10.6201C7.38024 10.6201 8.00024 11.2401 8.00024 12.0001C8.00024 12.7601 7.38024 13.3801 6.62024 13.3801ZM6.62024 11.8801C6.55024 11.8801 6.50024 11.9401 6.50024 12.0001C6.50024 12.1401 6.75024 12.1401 6.75024 12.0001C6.75024 11.9301 6.69024 11.8801 6.62024 11.8801Z" />
<path d="M17.38 13.3801C16.62 13.3801 16 12.7601 16 12.0001C16 11.2401 16.62 10.6201 17.38 10.6201C18.14 10.6201 18.76 11.2401 18.76 12.0001C18.76 12.7601 18.13 13.3801 17.38 13.3801ZM17.38 11.8801C17.31 11.8801 17.26 11.9401 17.26 12.0001C17.26 12.1401 17.51 12.1401 17.51 12.0001C17.5 11.9301 17.44 11.8801 17.38 11.8801Z" />
</svg>

<?xml version="1.0" encoding="UTF-8"?>
<svg width="24" height="24" viewBox="0 0 24 24" xmlns="http://www.w3.org/2000/svg">
 <path d="m16.19 2h-8.37c-3.64 0-5.81 2.17-5.81 5.81v8.37c0 3.64 2.17 5.81 5.81 5.81h8.37c3.64 0 5.81-2.17 5.81-5.81v-8.37c0-3.64-2.17-5.81-5.81-5.81z" opacity=".4"/>
 <path d="m12.08 19c-0.23 0-0.41-0.06-0.51-0.11-0.23-0.11-0.77-0.46-0.77-1.44v-3.39l-2.9 2.65c-0.3 0.28-0.77999 0.26-1.06-0.05s-0.25999-0.78 0.05001-1.06l3.91-3.58v-0.08l-3.91-3.54c-0.31-0.28-0.33001-0.75-0.05001-1.06s0.74999-0.33 1.06-0.05l2.9 2.65v-3.39c0-0.98 0.54-1.34 0.77-1.44 0.23-0.11 0.85-0.29 1.6 0.34l2.41 2.01c0.33 0.27 0.52 0.65999 0.53 1.07s-0.16 0.81001-0.47 1.1l-2.59 2.37 2.59 2.37c0.31 0.29 0.49 0.69 0.48 1.1s-0.2 0.8-0.53 1.07l-2.41 2.01c-0.43 0.35-0.81 0.45-1.1 0.45zm0.22-5.7v4.02l2.31-1.93-2.31-2.09zm0-6.62v3.96l2.31-2.12-2.31-1.84z"/>
 <path d="m6.6202 13.38c-0.76 0-1.38-0.62-1.38-1.38s0.62001-1.38 1.38-1.38 1.38 0.62 1.38 1.38-0.62 1.38-1.38 1.38zm0-1.5c-0.07 0-0.12 0.06-0.12 0.12 0 0.14 0.25 0.14 0.25 0 0-0.07-0.06-0.12-0.13-0.12z"/>
 <path d="m17.38 13.38c-0.76 0-1.38-0.62-1.38-1.38s0.62-1.38 1.38-1.38 1.38 0.62 1.38 1.38-0.63 1.38-1.38 1.38zm0-1.5c-0.07 0-0.12 0.06-0.12 0.12 0 0.14 0.25 0.14 0.25 0-0.01-0.07-0.07-0.12-0.13-0.12z"/>
</svg>
